; generated by PrusaSlicer 2.6.0+win64 on 2023-08-25 at 17:21:53 UTC

; 

; external perimeters extrusion width = 0.63mm
; perimeters extrusion width = 0.66mm
; infill extrusion width = 0.66mm
; solid infill extrusion width = 0.66mm
; top infill extrusion width = 0.60mm
; first layer extrusion width = 0.63mm

M190 S70 ; set bed temperature and wait for it to be reached
M104 S240 ; set temperature
;TYPE:Custom
; Start Klipper start gcode
PRINT_START EXTRUDER_TEMP=240 BED_TEMP=70
; End Klipper start gcode
M109 S240 ; set temperature and wait for it to be reached
G21 ; set units to millimeters
G90 ; use absolute coordinates
M83 ; use relative distances for extrusion
; Filament gcode
M107
;LAYER_CHANGE
;Z:0.3
;HEIGHT:0.3
;BEFORE_LAYER_CHANGE
G92 E0
;0.3


G10 ; retract
G1 Z.3 F9000
;AFTER_LAYER_CHANGE
;0.3
G1 X97.106 Y106.487
G11 ; unretract
M204 S500
;TYPE:Skirt/Brim
;WIDTH:0.63
G1 F1200
G1 X98.4 Y105.569 E.11193
G1 X112.493 Y97.887 E1.13233
G1 X113.578 Y97.414 E.0835
G1 X114.72 Y97.078 E.08398
G1 X115.812 Y96.898 E.07808
G1 X116.984 Y96.847 E.08276
G1 X118.243 Y96.955 E.08915
G1 X119.574 Y97.26 E.09633
G1 X120.821 Y97.742 E.09432
G1 X121.906 Y98.341 E.08743
G1 X122.932 Y99.102 E.09012
G1 X123.922 Y100.08 E.09817
G1 X124.744 Y101.172 E.09642
G1 X125.379 Y102.326 E.09292
G1 X125.824 Y103.483 E.08745
G1 X126.138 Y104.834 E.09785
G1 X126.25 Y106.131 E.09184
G1 X126.175 Y107.495 E.09637
G1 X125.921 Y108.768 E.09158
G1 X125.519 Y109.94 E.08741
G1 X124.927 Y111.116 E.09288
G1 X124.146 Y112.237 E.09638
G1 X122.932 Y113.482 E.12268
G1 X121.511 Y114.483 E.12262
G1 X107.672 Y122.026 E1.11191
G1 X106.105 Y122.695 E.1202
G1 X104.976 Y122.985 E.08223
G1 X103.87 Y123.13 E.07869
G1 X102.68 Y123.141 E.08395
G1 X101.513 Y123.004 E.08289
G1 X100.297 Y122.699 E.08844
G1 X99.196 Y122.267 E.08344
G1 X98.23 Y121.745 E.07746
G1 X97.259 Y121.057 E.08395
G1 X95.917 Y119.731 E.13309
G1 X94.918 Y118.26 E.12544
G1 X94.18 Y116.529 E.13275
G1 X93.797 Y114.664 E.13432
G1 X93.797 Y112.753 E.13482
G1 X94.179 Y110.889 E.13423
G1 X94.917 Y109.157 E.13282
G1 X95.912 Y107.692 E.12494
G1 X97.042 Y106.55 E.11334
G1 X97.44 Y106.953 F9000
G1 F1200
G1 X97.503 Y106.891 E.00624
G1 X98.68 Y106.061 E.1016
G1 X112.745 Y98.393 E1.13013
G1 X113.762 Y97.948 E.07831
G1 X114.847 Y97.63 E.07976
G1 X115.86 Y97.461 E.07245
G1 X116.963 Y97.412 E.07789
G1 X118.143 Y97.512 E.08354
G1 X119.416 Y97.803 E.09212
G1 X120.629 Y98.276 E.09185
G1 X121.721 Y98.896 E.08859
G1 X122.64 Y99.597 E.08154
G1 X123.558 Y100.524 E.09204
G1 X124.282 Y101.5 E.08573
G1 X124.905 Y102.651 E.09233
G1 X125.345 Y103.855 E.09043
G1 X125.6 Y105.064 E.08717
G1 X125.685 Y106.217 E.08156
G1 X125.6 Y107.519 E.09205
G1 X125.345 Y108.728 E.08717
G1 X124.905 Y109.933 E.0905
G1 X124.282 Y111.084 E.09233
G1 X123.558 Y112.059 E.08567
G1 X122.505 Y113.102 E.10456
G1 X121.231 Y113.992 E.10964
G1 X107.402 Y121.53 E1.11112
G1 X105.926 Y122.159 E.11319
G1 X104.847 Y122.434 E.07855
G1 X103.685 Y122.575 E.08258
G1 X102.591 Y122.569 E.07718
G1 X101.559 Y122.437 E.0734
G1 X100.466 Y122.159 E.07956
G1 X99.439 Y121.756 E.07783
G1 X98.405 Y121.186 E.0833
G1 X97.51 Y120.531 E.07824
G1 X96.329 Y119.341 E.11828
G1 X95.344 Y117.86 E.12548
G1 X94.676 Y116.216 E.12519
G1 X94.344 Y114.436 E.12774
G1 X94.377 Y112.656 E.1256
G1 X94.763 Y110.92 E.12546
G1 X95.431 Y109.397 E.11732
G1 X96.441 Y107.942 E.12495
G1 X97.376 Y107.016 E.09284
G1 X97.768 Y107.42 F9000
G1 F1200
G1 X97.869 Y107.322 E.00993
G1 X98.963 Y106.551 E.09442
G1 X113.007 Y98.894 E1.12845
G1 X113.951 Y98.482 E.07266
G1 X114.976 Y98.18 E.07538
G1 X115.924 Y98.023 E.06779
G1 X116.948 Y97.978 E.07231
G1 X118.061 Y98.072 E.0788
G1 X119.253 Y98.345 E.08627
G1 X120.393 Y98.791 E.08636
G1 X121.41 Y99.369 E.08252
G1 X122.259 Y100.015 E.07526
G1 X123.119 Y100.882 E.08615
G1 X123.796 Y101.789 E.07985
G1 X124.381 Y102.863 E.08628
G1 X124.802 Y104.013 E.08639
G1 X125.041 Y105.147 E.08176
G1 X125.12 Y106.217 E.07569
G1 X125.041 Y107.437 E.08625
G1 X124.801 Y108.574 E.08198
G1 X124.379 Y109.723 E.08635
G1 X123.807 Y110.777 E.0846
G1 X123.072 Y111.757 E.08642
G1 X122.031 Y112.76 E.10198
G1 X120.951 Y113.5 E.09236
G1 X107.131 Y121.033 E1.11039
G1 X105.747 Y121.622 E.10611
G1 X104.743 Y121.878 E.0731
G1 X103.649 Y122.011 E.07775
G1 X102.607 Y122.003 E.07351
G1 X101.521 Y121.853 E.07734
G1 X100.535 Y121.586 E.07206
G1 X99.503 Y121.159 E.07879
G1 X98.613 Y120.647 E.07244
G1 X97.728 Y119.974 E.07844
G1 X96.603 Y118.776 E.11594
G1 X95.77 Y117.451 E.11041
G1 X95.171 Y115.888 E.11809
G1 X94.898 Y114.254 E.11687
G1 X94.957 Y112.58 E.11817
G1 X95.311 Y111.066 E.10969
G1 X95.989 Y109.56 E.11651
G1 X96.974 Y108.191 E.11898
G1 X97.704 Y107.483 E.07174
; printing object bilderamem.stl id:0 copy 0
G10 ; retract
G1 X99.972 Y110.81 F9000
G11 ; unretract
;TYPE:External perimeter
;WIDTH:0.63
G1 F1200
G1 X100.538 Y110.289 E.05427
G1 X100.95 Y110.001 E.03546
G1 X101.643 Y109.666 E.0543
G1 X102.121 Y109.509 E.03549
G1 X102.881 Y109.389 E.05428
G1 X103.384 Y109.378 E.03549
G1 X104.146 Y109.483 E.05426
G1 X104.631 Y109.619 E.03554
G1 X105.329 Y109.94 E.0542
G1 X105.754 Y110.21 E.03552
G1 X106.33 Y110.721 E.05432
G1 X106.658 Y111.102 E.03547
G1 X107.061 Y111.757 E.05425
G1 X107.265 Y112.217 E.0355
G1 X107.472 Y113.003 E.05734
G1 X107.521 Y113.504 E.03551
G1 X107.495 Y114.223 E.05076
G1 X107.408 Y114.726 E.03601
G1 X107.161 Y115.447 E.05377
G1 X106.932 Y115.903 E.036
G1 X106.487 Y116.521 E.05372
G1 X106.136 Y116.892 E.03603
G1 X105.531 Y117.355 E.05375
G1 X105.088 Y117.607 E.03596
G1 X104.374 Y117.875 E.0538
G1 X103.876 Y117.988 E.03603
G1 X103.116 Y118.038 E.05373
G1 X102.607 Y118.002 E.036
G1 X101.864 Y117.829 E.05382
G1 X101.387 Y117.647 E.03602
G1 X100.727 Y117.266 E.05376
G1 X100.323 Y116.954 E.03601
G1 X99.802 Y116.398 E.05375
G1 X99.506 Y115.983 E.03596
G1 X99.168 Y115.3 E.05376
G1 X99.005 Y114.816 E.03603
G1 X98.879 Y114.064 E.05379
G1 X98.865 Y113.649 E.02929
G1 X98.906 Y113.085 E.03989
G1 X99.087 Y112.337 E.05429
G1 X99.271 Y111.869 E.03548
G1 X99.661 Y111.206 E.05426
G1 X99.917 Y110.881 E.02919
G1 X100.558 Y110.942 F9000
G10 ; retract
G1 X100.085 Y113.128
G11 ; unretract
G1 F1200
G1 X100.224 Y112.645 E.03546
G1 X100.534 Y111.997 E.05068
G1 X100.861 Y111.581 E.03733
G1 X101.315 Y111.171 E.04316
G1 X101.907 Y110.818 E.04862
G1 X102.437 Y110.641 E.03942
G1 X103.044 Y110.552 E.04328
G1 X103.701 Y110.585 E.04641
G1 X104.472 Y110.814 E.05674
G1 X104.969 Y111.089 E.04007
G1 X105.44 Y111.479 E.04314
G1 X105.827 Y111.951 E.04306
G1 X106.115 Y112.49 E.04311
G1 X106.295 Y113.073 E.04304
G1 X106.359 Y113.681 E.04313
G1 X106.305 Y114.289 E.04306
G1 X106.136 Y114.876 E.04309
G1 X105.856 Y115.419 E.0431
G1 X105.478 Y115.898 E.04305
G1 X105.015 Y116.296 E.04307
G1 X104.555 Y116.558 E.03735
G1 X103.986 Y116.765 E.04272
G1 X103.299 Y116.87 E.04903
G1 X102.74 Y116.835 E.03951
G1 X102.152 Y116.69 E.04272
G1 X101.549 Y116.41 E.0469
G1 X101.077 Y116.056 E.04162
G1 X100.668 Y115.608 E.0428
G1 X100.338 Y115.066 E.04477
G1 X100.13 Y114.492 E.04307
G1 X100.05 Y113.895 E.04249
G1 X100.038 Y113.626 E.019
G1 X100.077 Y113.217 E.02898
G1 X99.709 Y112.794 F9000
G1 X99.454 Y113.633
;TYPE:Perimeter
;WIDTH:0.681563
G1 F1200
G1 X99.452 Y113.57 E.00485
;WIDTH:0.675288
G1 X99.507 Y113.073 E.0381
;WIDTH:0.676081
G1 X99.659 Y112.476 E.047
G1 X99.8 Y112.13 E.02851
;WIDTH:0.675713
G1 X100.168 Y111.504 E.05537
G1 X100.55 Y111.063 E.04449
;WIDTH:0.674591
G1 X100.936 Y110.721 E.03925
;WIDTH:0.676843
G1 X101.246 Y110.512 E.02856
;WIDTH:0.677029
G1 X101.899 Y110.196 E.05543
G1 X102.469 Y110.039 E.04518
;WIDTH:0.672849
G1 X102.973 Y109.969 E.03862
;WIDTH:0.677949
G1 X103.346 Y109.968 E.02854
;WIDTH:0.681495
G1 X104.065 Y110.069 E.05588
G1 X104.751 Y110.309 E.05594
;WIDTH:0.670105
G1 X105.398 Y110.677 E.05623
;WIDTH:0.670315
G1 X105.941 Y111.159 E.05487
G1 X106.367 Y111.729 E.05378
;WIDTH:0.672171
G1 X106.709 Y112.408 E.05763
G1 X106.856 Y112.935 E.04148
;WIDTH:0.677435
G1 X106.932 Y113.483 E.0423
;WIDTH:0.677525
G1 X106.906 Y114.201 E.05494
G1 X106.838 Y114.576 E.02915
;WIDTH:0.674019
G1 X106.631 Y115.197 E.04977
;WIDTH:0.663911
G1 X106.371 Y115.689 E.04161
;WIDTH:0.676347
G1 X106.009 Y116.177 E.04638
G1 X105.744 Y116.451 E.02909
;WIDTH:0.675595
G1 X105.173 Y116.887 E.05477
;WIDTH:0.675393
G1 X104.648 Y117.156 E.04496
;WIDTH:0.674929
G1 X104.167 Y117.324 E.0388
;WIDTH:0.676901
G1 X103.795 Y117.403 E.02905
G1 X103.078 Y117.45 E.05489
;WIDTH:0.676733
G1 X102.484 Y117.38 E.04568
;WIDTH:0.673259
G1 X101.998 Y117.257 E.03807
;WIDTH:0.678003
G1 X101.644 Y117.115 E.02919
G1 X101.022 Y116.756 E.05496
;WIDTH:0.67786
G1 X100.587 Y116.39 E.0435
;WIDTH:0.671338
G1 X100.229 Y115.997 E.04024
;WIDTH:0.678845
G1 X100.015 Y115.682 E.02919
G1 X99.697 Y115.038 E.05504
;WIDTH:0.678741
G1 X99.54 Y114.503 E.04272
;WIDTH:0.681563
G1 X99.463 Y113.967 E.04168
G1 X99.456 Y113.723 E.01879
; stop printing object bilderamem.stl id:0 copy 0
; printing object bilderamem.stl id:0 copy 1
G10 ; retract
G1 X112.475 Y106.233 F9000
G11 ; unretract
;TYPE:External perimeter
;WIDTH:0.63
G1 F1200
G1 X112.516 Y105.669 E.03989
G1 X112.697 Y104.921 E.05429
G1 X112.88 Y104.452 E.03552
G1 X113.271 Y103.79 E.05424
G1 X113.582 Y103.394 E.03552
G1 X114.148 Y102.873 E.05427
G1 X114.56 Y102.584 E.0355
G1 X115.253 Y102.249 E.0543
G1 X115.731 Y102.093 E.03547
G1 X116.491 Y101.973 E.05428
G1 X116.994 Y101.962 E.03549
G1 X117.756 Y102.067 E.05426
G1 X118.241 Y102.202 E.03552
G1 X118.939 Y102.524 E.05423
G1 X119.364 Y102.794 E.03552
G1 X119.94 Y103.304 E.05427
G1 X120.268 Y103.686 E.03552
G1 X120.671 Y104.341 E.05425
G1 X120.875 Y104.801 E.0355
G1 X121.081 Y105.587 E.05732
G1 X121.13 Y106.088 E.03551
G1 X121.105 Y106.806 E.05068
G1 X121.018 Y107.31 E.03608
G1 X120.771 Y108.031 E.05377
G1 X120.542 Y108.487 E.036
G1 X120.097 Y109.105 E.05372
G1 X119.746 Y109.476 E.03603
G1 X119.14 Y109.939 E.0538
G1 X118.697 Y110.191 E.03596
G1 X117.984 Y110.459 E.05374
G1 X117.486 Y110.572 E.03603
G1 X116.726 Y110.622 E.05373
G1 X116.216 Y110.586 E.03607
G1 X115.474 Y110.413 E.05375
G1 X114.997 Y110.231 E.03602
G1 X114.337 Y109.85 E.05376
G1 X113.933 Y109.538 E.03601
G1 X113.411 Y108.982 E.0538
G1 X113.115 Y108.566 E.03602
G1 X112.778 Y107.883 E.05373
G1 X112.615 Y107.4 E.03596
G1 X112.489 Y106.648 E.05379
G1 X112.478 Y106.323 E.02294
G1 X112.967 Y105.954 F9000
G10 ; retract
G1 X113.695 Y105.712
G11 ; unretract
G1 F1200
G1 X113.833 Y105.228 E.03551
G1 X114.144 Y104.581 E.05064
G1 X114.471 Y104.165 E.03733
G1 X114.925 Y103.754 E.0432
G1 X115.516 Y103.402 E.04853
G1 X116.047 Y103.224 E.03951
G1 X116.653 Y103.136 E.0432
G1 X117.311 Y103.169 E.04648
G1 X118.082 Y103.398 E.05674
G1 X118.579 Y103.672 E.04004
G1 X119.05 Y104.062 E.04314
G1 X119.436 Y104.535 E.04307
G1 X119.725 Y105.074 E.04315
G1 X119.904 Y105.657 E.04302
G1 X119.969 Y106.265 E.04314
G1 X119.915 Y106.873 E.04306
G1 X119.745 Y107.46 E.04311
G1 X119.466 Y108.003 E.04307
G1 X119.088 Y108.482 E.04305
G1 X118.625 Y108.88 E.04307
G1 X118.165 Y109.142 E.03735
G1 X117.595 Y109.349 E.04278
G1 X116.909 Y109.454 E.04896
G1 X116.35 Y109.419 E.03951
G1 X115.762 Y109.274 E.04272
G1 X115.159 Y108.994 E.0469
G1 X114.687 Y108.64 E.04162
G1 X114.278 Y108.192 E.0428
G1 X113.947 Y107.65 E.0448
G1 X113.74 Y107.076 E.04305
G1 X113.659 Y106.478 E.04257
G1 X113.648 Y106.209 E.01899
G1 X113.686 Y105.801 E.02891
G1 X113.319 Y105.378 F9000
G1 X113.064 Y106.217
;TYPE:Perimeter
;WIDTH:0.681563
G1 F1200
G1 X113.062 Y106.154 E.00485
;WIDTH:0.675288
G1 X113.116 Y105.657 E.03809
;WIDTH:0.676081
G1 X113.269 Y105.06 E.04702
G1 X113.409 Y104.714 E.02848
;WIDTH:0.675713
G1 X113.778 Y104.088 E.05541
G1 X114.16 Y103.646 E.04454
;WIDTH:0.674591
G1 X114.546 Y103.305 E.0392
;WIDTH:0.676843
G1 X114.856 Y103.096 E.02856
;WIDTH:0.677029
G1 X115.509 Y102.78 E.05543
G1 X116.079 Y102.623 E.04518
;WIDTH:0.672849
G1 X116.583 Y102.553 E.03862
;WIDTH:0.677949
G1 X116.956 Y102.552 E.02854
;WIDTH:0.681495
G1 X117.675 Y102.653 E.05588
G1 X118.361 Y102.893 E.05594
;WIDTH:0.670105
G1 X119.008 Y103.261 E.05623
;WIDTH:0.670315
G1 X119.551 Y103.743 E.05487
G1 X119.977 Y104.313 E.05378
;WIDTH:0.672171
G1 X120.318 Y104.992 E.0576
G1 X120.466 Y105.519 E.0415
;WIDTH:0.677435
G1 X120.542 Y106.067 E.0423
;WIDTH:0.677525
G1 X120.516 Y106.785 E.05494
G1 X120.448 Y107.16 E.02915
;WIDTH:0.674019
G1 X120.241 Y107.781 E.04977
;WIDTH:0.663911
G1 X119.981 Y108.273 E.04161
;WIDTH:0.676347
G1 X119.619 Y108.761 E.04638
G1 X119.354 Y109.035 E.02909
;WIDTH:0.675595
G1 X118.783 Y109.471 E.05477
;WIDTH:0.675393
G1 X118.258 Y109.74 E.04496
;WIDTH:0.674929
G1 X117.777 Y109.908 E.0388
;WIDTH:0.676901
G1 X117.405 Y109.987 E.02905
G1 X116.687 Y110.034 E.05497
;WIDTH:0.676733
G1 X116.093 Y109.964 E.04568
;WIDTH:0.673259
G1 X115.607 Y109.841 E.03807
;WIDTH:0.678003
G1 X115.254 Y109.699 E.02912
G1 X114.632 Y109.34 E.05496
;WIDTH:0.67786
G1 X114.197 Y108.974 E.0435
;WIDTH:0.671338
G1 X113.839 Y108.581 E.04024
;WIDTH:0.678845
G1 X113.625 Y108.266 E.02919
G1 X113.306 Y107.622 E.05508
;WIDTH:0.678741
G1 X113.15 Y107.087 E.0427
;WIDTH:0.681563
G1 X113.072 Y106.551 E.04169
G1 X113.066 Y106.307 E.01879
; stop printing object bilderamem.stl id:0 copy 1
;LAYER_CHANGE
;Z:0.58
;HEIGHT:0.28
;BEFORE_LAYER_CHANGE
G92 E0
;0.58


G10 ; retract
G1 Z.58 F9000
;AFTER_LAYER_CHANGE
;0.58
G1 X109.396 Y99.575
G11 ; unretract
;TYPE:Skirt/Brim
;WIDTH:0.63
G1 F1230
G1 X112.493 Y97.887 E.234
G1 X113.578 Y97.414 E.07853
G1 X114.72 Y97.078 E.07898
G1 X115.812 Y96.898 E.07342
G1 X116.984 Y96.847 E.07783
G1 X118.243 Y96.955 E.08383
G1 X119.574 Y97.26 E.09059
G1 X120.821 Y97.742 E.0887
G1 X121.906 Y98.341 E.08222
G1 X122.932 Y99.102 E.08475
G1 X123.922 Y100.08 E.09232
G1 X124.744 Y101.172 E.09068
G1 X125.379 Y102.326 E.08739
G1 X125.824 Y103.483 E.08224
G1 X126.138 Y104.834 E.09202
G1 X126.25 Y106.131 E.08637
G1 X126.175 Y107.495 E.09063
G1 X125.921 Y108.768 E.08612
G1 X125.519 Y109.94 E.0822
G1 X124.927 Y111.116 E.08735
G1 X124.146 Y112.237 E.09064
G1 X122.932 Y113.482 E.11537
G1 X121.511 Y114.483 E.11532
G1 X107.672 Y122.026 E1.04565
G1 X106.105 Y122.695 E.11304
G1 X104.976 Y122.985 E.07733
G1 X103.87 Y123.13 E.074
G1 X102.68 Y123.141 E.07895
G1 X101.513 Y123.004 E.07795
G1 X100.297 Y122.699 E.08317
G1 X99.196 Y122.267 E.07847
G1 X98.23 Y121.745 E.07285
G1 X97.259 Y121.057 E.07895
G1 X95.917 Y119.731 E.12516
G1 X94.918 Y118.26 E.11797
G1 X94.18 Y116.529 E.12484
G1 X93.797 Y114.664 E.12631
G1 X93.797 Y112.753 E.12678
G1 X94.179 Y110.889 E.12623
G1 X94.917 Y109.157 E.1249
G1 X95.912 Y107.692 E.11749
G1 X97.106 Y106.487 E.11254
G1 X98.4 Y105.569 E.10526
G1 X109.317 Y99.618 E.82489
G1 X109.588 Y100.114 F9000
G1 F1230
G1 X112.745 Y98.393 E.23855
G1 X113.762 Y97.948 E.07365
G1 X114.847 Y97.63 E.07501
G1 X115.86 Y97.461 E.06813
G1 X116.963 Y97.412 E.07325
G1 X118.143 Y97.512 E.07857
G1 X119.416 Y97.803 E.08663
G1 X120.629 Y98.276 E.08638
G1 X121.721 Y98.896 E.08331
G1 X122.64 Y99.597 E.07668
G1 X123.558 Y100.524 E.08655
G1 X124.282 Y101.5 E.08062
G1 X124.905 Y102.651 E.08683
G1 X125.345 Y103.855 E.08504
G1 X125.6 Y105.064 E.08197
G1 X125.685 Y106.217 E.0767
G1 X125.6 Y107.519 E.08656
G1 X125.345 Y108.728 E.08197
G1 X124.905 Y109.933 E.08511
G1 X124.282 Y111.084 E.08683
G1 X123.558 Y112.059 E.08057
G1 X122.505 Y113.102 E.09833
G1 X121.231 Y113.992 E.1031
G1 X107.402 Y121.53 E1.04491
G1 X105.926 Y122.159 E.10644
G1 X104.847 Y122.434 E.07387
G1 X103.685 Y122.575 E.07766
G1 X102.591 Y122.569 E.07258
G1 X101.559 Y122.437 E.06902
G1 X100.466 Y122.159 E.07482
G1 X99.439 Y121.756 E.07319
G1 X98.405 Y121.186 E.07833
G1 X97.51 Y120.531 E.07358
G1 X96.329 Y119.341 E.11123
G1 X95.344 Y117.86 E.118
G1 X94.676 Y116.216 E.11773
G1 X94.344 Y114.436 E.12013
G1 X94.377 Y112.656 E.11811
G1 X94.763 Y110.92 E.11799
G1 X95.431 Y109.397 E.11033
G1 X96.441 Y107.942 E.11751
G1 X97.503 Y106.891 E.09913
G1 X98.68 Y106.061 E.09555
G1 X109.509 Y100.157 E.81827
G1 X109.779 Y100.654 F9000
G1 F1230
G1 X113.007 Y98.894 E.24392
G1 X113.951 Y98.482 E.06833
G1 X114.976 Y98.18 E.07089
G1 X115.924 Y98.023 E.06375
G1 X116.948 Y97.978 E.068
G1 X118.061 Y98.072 E.0741
G1 X119.253 Y98.345 E.08113
